!!!!SEGMENT: pl-wtm--r-1175--003_lessel-franciszek--quartetto-no-6-menuetto.krn
!!!cenid: 18xx:1627
!!!COM: Lessel, Franciszek
!!!COM-rismid: pe30004332
!!!CDT: 1780-1838/12/26
!!!CNT: Polish
!!!OPR: Quartetto No 6
!!!OTL: Menuetto
!!!OMV: 003
!!!PDT:
!!!AGN: Secular; String quartet; Minuet
!!!SMS-siglum: PL-Wtm
!!!SMS-shelfmark: R 1175
!!!SMS-shelfwork: 001-003 M
!!!SMS-variant:
!!!SMS-altvar:
!!!NIFC-rismid: 1001085812
!!!URL-scan: http://repozytorium.nifc.pl/skany/pl-wtm-nut--r1175
!!!ONB-nifc: UWAGA: części Kwartetu: 1. Allegro di molto (łącznie z początkowym Adagio), 2. Andante, 3. Menuetto, 4. Fuga
**kern	**dynam
*I"Viola	*
*I'vla	*
*clefC3	*
*k[f#c#]	*
*G:	*
*M3/4	*
=1	=1
!LO:TX:a:i:t=All(egr)o	!
!LO:TX:i:t=Menuetto	!
8D/L	.
8F#/J	.
2D/	f
=2	=2
8D/L	.
8F#/J	.
2D/	.
=3	=3
8F#/L	.
8A/	.
8F#/	.
8A/	.
8F#/	.
8A/J	.
=4	=4
4G'/	.
4F#'/	.
4r	.
!LO:LB:g=original	!
=5	=5
4r	.
4r	.
4g\	p
=6	=6
4r	.
4r	.
4g\	.
=7	=7
4r	.
4A\ 4g	.
4A\ 4g	.
=8	=8
4A\ 4g	.
4r	.
4r	.
=9:|!|:	=9:|!|:
8D/L	.
8F#/J	f
2D/	.
=10	=10
4G/	.
4r	.
4G\ 4d 4b	.
!LO:LB:g=original	!
=11	=11
4r	.
4r	.
4d#X\	.
=12	=12
4e\	.
4r	.
4r	.
=13	=13
!	!LO:DY:t=po.
4r	p
4E/	.
4E/	.
=14	=14
4r	.
4E/	.
4E/	.
=15	=15
4r	.
4E/	.
4E/	.
=16	=16
4E/	.
4r	.
4r	.
!LO:LB:g=original	!
=17	=17
4r	f
8D/L	.
8F#/J	.
[4D/	.
=18	=18
4D/]	.
8D/L	.
8F#/J	.
[4D/	.
=19	=19
4D/]	.
8F#/L	.
8A/	.
8F#/	.
8A/J	.
=20	=20
4G/	.
4F#/	.
4r	p
=21	=21
4A'\ 4e	.
4A'\ 4f#	.
4r	.
=22	=22
4r	fz
*2\right	*
2d\ 2dd	.
!LO:LB:g=original	!
=23	=23
4d\ 4dd	.
4a\	.
4a\	.
=24	=24
4b\	.
4r	.
4e\	p
=25	=25
(4d\	.
4A\)	.
!	!LO:HP:t=dimin
4A\	>
=26	=26
(4d\	.
4A\)	.
4A\	.
=27	=27
(4d\	.
!	!LO:DY:u:t=pp
4A\)	pp
4A\	.
=28	=28
2A/	.
4r	.
!LO:LB:g=original	!
=29:|!	=29:|!
*ok[c#f#cn]	*
*k[f#]	*
*M3/4	*
!LO:TX:i:t=Trio	!LO:DY:t=fo.
4D/ 4B	f
8D/L 8B	.
8G/	.
8D/ 8B	.
8G/J	.
=30	=30
4D/ 4B	.
4r	.
4r	.
=31	=31
4D/ 4B	p
4D/ 4B	.
4D/ 4B	.
=32	=32
4D/ 4B	.
4D/ 4B	.
4D/ 4B	.
=33	=33
4D/ 4B	.
4D/ 4B	.
4D/ 4B	.
!LO:LB:g=original	!
=34	=34
4D/ 4B	.
4D/ 4B	.
4D/ 4B	.
=35	=35
4D/ 4B	.
4D/ 4B	.
4D/ 4B	.
=36	=36
4D/ 4B	.
4D/ 4B	.
4D/ 4B	.
=37	=37
4D/ 4A	.
4D/ 4A	.
4D/ 4B	.
=38	=38
4D/ 4A	.
4r	.
4r	.
=39	=39
4r	.
4B\ 4d	.
4B\ 4d	.
=40	=40
4B\ 4d	.
4B\ 4d	.
4B\ 4d	.
!LO:LB:g=original	!
=41	=41
4B\ 4d	.
4B\ 4d	.
4B\ 4d	.
=42	=42
4B\ 4d	.
4B\ 4d	.
4B\ 4d	.
=43	=43
!	!LO:DY:t=fo.
4B/	f
(8D/L	.
8E/	.
8F#/	.
8G/J)	.
=44	=44
(8A\L	.
8B\	.
8c\	.
8d\J)	.
4d\	.
=45	=45
(8c\L	.
8d\	.
8e\)	.
8c\	.
8A'\	.
8f#'\J	.
=46	=46
4g\	.
4r	.
=!|:	=!|:
4r	.
!LO:LB:g=original	!
=47	=47
4r	.
4G/	p
!	!LO:DY:t=mf.
4G/	mf
=48	=48
4r	.
4G/	.
4G/	.
=49	=49
4r	.
4F#/	.
4F#/	.
=50	=50
4r	.
4F#/	.
4F#/	.
=51	=51
4r	.
4G/	.
4G/	.
=52	=52
4r	.
4G/	.
4G/	.
=53	=53
4r	.
4F#/	.
4F#/	.
!LO:LB:g=original	!
=54	=54
4G/	.
4E/	.
4r	.
=55	=55
!	!LO:DY:u:t=pp.
4r	pp
4D/ 4B	.
4D/ 4B	.
=56	=56
4D/ 4B	.
4D/ 4B	.
4D/ 4B	.
=57	=57
4D/ 4B	.
4D/ 4B	.
4D/ 4B	.
=58	=58
4D/ 4B	.
4D/ 4B	.
4D/ 4B	.
=59	=59
4D/ 4B	.
4D/ 4B	.
4D/ 4B	.
=60	=60
4D/ 4B	.
4D/ 4B	.
4D/ 4B	.
!LO:LB:g=original	!
=61	=61
4D/ 4A	.
4D/ 4A	.
4D/ 4B	.
=62	=62
4D/ 4A	.
4r	.
4r	.
=63	=63
4r	.
4B\ 4d	.
4B\ 4d	.
=64	=64
4B\ 4d	.
4B\ 4d	.
4B\ 4d	.
=65	=65
4B\ 4d	.
4B\ 4d	.
4B\ 4d	.
=66	=66
4B\ 4d	.
4B\ 4d	.
4B\ 4d	.
=67	=67
!	!LO:DY:t=fo.
4B/	f
(8D/L	.
8E/	.
8F#/	.
8G/J)	.
=68	=68
(8A\L	.
8B\	.
8c\	.
8d\J)	.
4d\	.
!LO:LB:g=original	!
=69	=69
8c\L	.
8d\	.
8e\	.
8c\	.
8A\	.
8f#\J	.
=70	=70
4g\	.
!LO:TX:b:i:t=M.D.C.	!
4r	.
!LO:PB:g=original	!
==:|!	==:|!
*-	*-
!!!RDF**dynam: f = "fo"
!!!RDF**dynam: p = "po"
!!!ENC: Marta Chmielewska
!!!END: 2021-04-13
!!!ENC:Kamil Watkowski
!!!END:2021-03-27
